X: 1292
T: An Ghlaise Bheo
R: slide
M: 12/8
K: Gmajor
|:B2d B2G D3 G2A|B2d BAB c3 c2d|
e2g gfe d2g B2d|1 c2A F2A G2d e2d:|2 c2A F2A (G3G2) d||
|:e2g gfe d2g b2g|e2c g2e d2g f2g|
e2g gfe d2B G2B|1 c2A F2A (G3G2) d:|2 c2A F2A d2e d2c||

